public/svgs/solid/align-justify.svg

<svg xmlns="http://www.w3.org/2000/svg" viewBox="0 0 448 512"><!-- Font Awesome Pro 6.0.0-alpha2 by @fontawesome - https://fontawesome.com License - https://fontawesome.com/license (Commercial License) --><path d="M416 416H32C14.327 416 0 430.327 0 448V448C0 465.673 14.327 480 32 480H416C433.673 480 448 465.673 448 448V448C448 430.327 433.673 416 416 416ZM416 288H32C14.327 288 0 302.327 0 320V320C0 337.673 14.327 352 32 352H416C433.673 352 448 337.673 448 320V320C448 302.327 433.673 288 416 288ZM416 160H32C14.327 160 0 174.327 0 192V192C0 209.673 14.327 224 32 224H416C433.673 224 448 209.673 448 192V192C448 174.327 433.673 160 416 160ZM416 32H32C14.327 32 0 46.327 0 64V64C0 81.673 14.327 96 32 96H416C433.673 96 448 81.673 448 64V64C448 46.327 433.673 32 416 32Z"/></svg>

<svg xmlns="http://www.w3.org/2000/svg" viewBox="0 0 448 512"><!--! Font Awesome Pro 6.5.1 by @fontawesome - https://fontawesome.com License - https://fontawesome.com/license (Commercial License) Copyright 2023 Fonticons, Inc. --><path d="M448 64c0-17.7-14.3-32-32-32H32C14.3 32 0 46.3 0 64S14.3 96 32 96H416c17.7 0 32-14.3 32-32zm0 256c0-17.7-14.3-32-32-32H32c-17.7 0-32 14.3-32 32s14.3 32 32 32H416c17.7 0 32-14.3 32-32zM0 192c0 17.7 14.3 32 32 32H416c17.7 0 32-14.3 32-32s-14.3-32-32-32H32c-17.7 0-32 14.3-32 32zM448 448c0-17.7-14.3-32-32-32H32c-17.7 0-32 14.3-32 32s14.3 32 32 32H416c17.7 0 32-14.3 32-32z"/></svg>
